UI/Discovery-Sharing/SVG/group-filter_outline_24px.svg

<svg width="24" height="24" viewBox="0 0 24 24" fill="none" xmlns="http://www.w3.org/2000/svg">
<path d="M20 9V20H4V4H12V2H4C3.46957 2 2.96086 2.21071 2.58579 2.58579C2.21071 2.96086 2 3.46957 2 4V20C2 20.5304 2.21071 21.0391 2.58579 21.4142C2.96086 21.7893 3.46957 22 4 22H20C20.5304 22 21.0391 21.7893 21.4142 21.4142C21.7893 21.0391 22 20.5304 22 20V7L20 9ZM11 11H7V7H11V11ZM17 17H13V13H17V17ZM11 17H7V13H11V17ZM15 11H13V8H15V11ZM17 5L14 2H22L19 5V7L17 9V5Z" fill="#0F1621"/>
</svg>

<svg xmlns="http://www.w3.org/2000/svg" width="24" height="24" viewBox="0 0 24 24"><rect width="24" height="24" style="fill:none"/><path d="M20,9V20H4V4h8V2H4A2,2,0,0,0,2,4V20a2,2,0,0,0,2,2H20a2,2,0,0,0,2-2V7Zm-9,2H7V7h4Zm6,6H13V13h4Zm-6,0H7V13h4Zm4-6H13V8h2Zm2-6L14,2h8L19,5V7L17,9Z"/></svg>
